X: 277
T:Preter rerum seriem / Virtus sancti spiritus
N: Derived from Jos2411-Preter_rerum_seriem.krn
C: Josquin des Prez
%%abc-version 2.0
%%abcx-abcm2ps-target-version 5.9.1 (29 Sep 2008)
%%abc-creator hum2abc beta
%%abcx-conversion-date 2019/02/12 16:15:52
%%abc-edited-by Jesse Rodin
%%abc-edited-by Will Watson 20/05/2011; JR 2013/02 (text)
%%abcx-initial-encoding-date 2013/02/20/
%%humdrum-veritas 2843477292
%%humdrum-veritas-data 3423554663
%%linebreak <none>
%%barnumbers 0
L: 1/4
M: 2/1
Q: 1/2=120
V: 1 clef=treble
V: 2 clef=treble-8
V: 3 clef=treble-8
V: 4 clef=treble-8
V: 5 clef=bass
V: 6 clef=bass
K: F
[V:1] z8 | 
[V:2] z8 | 
[V:3] z8 | 
[V:4] G8- | 
[V:5] G,,6A,,2 | 
[V:6] z8 | 
[V:1] z8 | 
[V:2] z8 | 
[V:3] z8 | 
[V:4] G8 | 
[V:5] B,,4C,4 | 
[V:6] z8 | 
[V:1] z8 | 
[V:2] z8 | 
[V:3] z8 | 
[V:4] G8 | 
[V:5] B,,4G,,4 | 
[V:6] z8 | 
[V:1] z8 | 
[V:2] z8 | 
[V:3] z8 | 
[V:4] G8- | 
[V:5] B,,6C,2 | 
[V:6] G,,6A,,2 | 
[V:1] z8 | 
[V:2] z8 | 
[V:3] z8 | 
[V:4] G8 | 
[V:5] D,4_E,4 | 
[V:6] B,,4C,4 | 
[V:1] z8 | 
[V:2] z8 | 
[V:3] z8 | 
[V:4] G8 | 
[V:5] D,8 | 
[V:6] B,,4G,,4 | 
[V:1] z8 | 
[V:2] z8 | 
[V:3] z8 | 
[V:4] G8- | 
[V:5] G,,6A,,2 | 
[V:6] B,,6C,2 | 
[V:1] z8 | 
[V:2] z8 | 
[V:3] z8 | 
[V:4] G8 | 
[V:5] B,,2G,,2G,4 | 
[V:6] D,4_E,4 | 
[V:1] z8 | 
[V:2] z8 | 
[V:3] z8 | 
[V:4] A8 | 
[V:5] F,3G,A,2D,2- | 
[V:6] D,2F,3G,A,2 | 
[V:1] z8 | 
[V:2] z8 | 
[V:3] z8 | 
[V:4] F8- | 
[V:5] D,E,F,2B,,3C, | 
[V:6] D,3E,F,2B,,2- | 
[V:1] z8 | 
[V:2] z8 | 
[V:3] z8 | 
[V:4] F8 | 
[V:5] D,E,F,3E,D,C, | 
[V:6] B,,C,D,E,F,G,A,2- | 
[V:1] z8 | 
[V:2] z8 | 
[V:3] z8 | 
[V:4] z8 | 
[V:5] D,2B,,2A,,4 | 
[V:6] A,G,G,4^F,2 | 
[V:1] G8- | 
[V:2] z8 | 
[V:3] G6A2 | 
[V:4] B6c2 | 
[V:5] G,,4G,4- | 
[V:6] G,8 | 
[V:1] G8 | 
[V:2] z8 | 
[V:3] B4c4 | 
[V:4] d4_e4 | 
[V:5] G,4C,4 | 
[V:6] z8 | 
[V:1] G8 | 
[V:2] z8 | 
[V:3] B4G4 | 
[V:4] d2G2B4- | 
[V:5] G,8 | 
[V:6] z8 | 
[V:1] G8- | 
[V:2] G6A2 | 
[V:3] B6c2 | 
[V:4] B2c2d4 | 
[V:5] G,,8 | 
[V:6] z4G,4- | 
[V:1] G8 | 
[V:2] B4c4 | 
[V:3] d4_e4 | 
[V:4] G8- | 
[V:5] z8 | 
[V:6] G,4C,4 | 
[V:1] G8 | 
[V:2] B4G4 | 
[V:3] d8 | 
[V:4] G4B4- | 
[V:5] z4G,4- | 
[V:6] G,8 | 
[V:1] G8- | 
[V:2] B6c2 | 
[V:3] G6A2 | 
[V:4] B2c2d4- | 
[V:5] G,4G,,4 | 
[V:6] G,,4G,4- | 
[V:1] G8 | 
[V:2] d4_e4 | 
[V:3] B2G2g4 | 
[V:4] d2B2c4 | 
[V:5] G,8 | 
[V:6] G,4C,4 | 
[V:1] A8 | 
[V:2] d4f4 | 
[V:3] f4d2f2- | 
[V:4] A8 | 
[V:5] D,8- | 
[V:6] F,8- | 
[V:1] F8- | 
[V:2] d2f3ed2- | 
[V:3] fed4cB | 
[V:4] z4A4 | 
[V:5] D,8 | 
[V:6] F,4D,4 | 
[V:1] F8- | 
[V:2] d2cBA2D2 | 
[V:3] A2D2d4 | 
[V:4] A2F3GA2 | 
[V:5] z4D,4 | 
[V:6] D,8 | 
[V:1] F8 | 
[V:2] d8 | 
[V:3] z2D3EF2 | 
[V:4] D4z4 | 
[V:5] D,2B,,3C,D,2 | 
[V:6] z4D,4 | 
[V:1] z8 | 
[V:2] z4d4 | 
[V:3] G8- | 
[V:4] B8- | 
[V:5] G,,8 | 
[V:6] D,2B,,3C,D,2 | 
[V:1] z8 | 
[V:2] d2B3cd2 | 
[V:3] G8 | 
[V:4] B8 | 
[V:5] z2G,3F,D,2 | 
[V:6] G,,8 | 
[V:1] z8 | 
[V:2] G4d4 | 
[V:3] z8 | 
[V:4] B8 | 
[V:5] _E,3D,B,,4 | 
[V:6] z2G,3F,D,2 | 
[V:1] z8 | 
[V:2] z8 | 
[V:3] G4d4 | 
[V:4] B8- | 
[V:5] z2G,3F,D,2 | 
[V:6] _E,3D,B,,4 | 
[V:1] z8 | 
[V:2] G4d4 | 
[V:3] z8 | 
[V:4] B8 | 
[V:5] _E,3D,B,,4 | 
[V:6] z2G,3F,D,2 | 
[V:1] z8 | 
[V:2] z8 | 
[V:3] G4d3e | 
[V:4] B8 | 
[V:5] z2G,4F,2- | 
[V:6] _E,3D,B,,2D,2- | 
[V:1] z8 | 
[V:2] z8 | 
[V:3] f2e2c3d | 
[V:4] A8 | 
[V:5] F,D,E,2F,2E,2- | 
[V:6] D,2C,2A,,2C,2- | 
[V:1] z8 | 
[V:2] z8 | 
[V:3] _e2d2B2d2- | 
[V:4] G8 | 
[V:5] E,C,D,2_E,2D,2- | 
[V:6] C,2B,,2G,,2B,,2- | 
[V:1] z8 | 
[V:2] z8 | 
[V:3] d2c4BA | 
[V:4] F8 | 
[V:5] D,2_E,2C,4 | 
[V:6] B,,2C,2A,,4 | 
[V:1] B8- | 
[V:2] d4d2B2- | 
[V:3] B4z2d2 | 
[V:4] G8- | 
[V:5] D,8 | 
[V:6] G,,8- | 
[V:1] B8 | 
[V:2] Bcd2G4 | 
[V:3] d2B3cd2 | 
[V:4] G8 | 
[V:5] z4B,4 | 
[V:6] G,,8- | 
[V:1] B8 | 
[V:2] z2g3fd2 | 
[V:3] G8 | 
[V:4] z4B4 | 
[V:5] B,2G,3A,B,2 | 
[V:6] G,,8 | 
[V:1] B8- | 
[V:2] _e3dd4 | 
[V:3] z2g3fd2 | 
[V:4] B2G3AB2 | 
[V:5] _E,3F,G,4 | 
[V:6] z4B,4 | 
[V:1] B8 | 
[V:2] z2g3fd2 | 
[V:3] _e3dB4 | 
[V:4] _E3FG4 | 
[V:5] z8 | 
[V:6] B,2G,3A,B,2 | 
[V:1] B8 | 
[V:2] _e3dB3c | 
[V:3] z2g3fd2- | 
[V:4] z8 | 
[V:5] z2G,3A,B,G, | 
[V:6] _E,3F,G,4 | 
[V:1] A8 | 
[V:2] d3cA3B | 
[V:3] def3ec2- | 
[V:4] z2F3GAF | 
[V:5] A,4z4 | 
[V:6] D,4F,4 | 
[V:1] G8 | 
[V:2] c3BG3A | 
[V:3] cd_e3Bc2 | 
[V:4] G4z4 | 
[V:5] z2C,3D,_E,C, | 
[V:6] C,4_E,4 | 
[V:1] F8 | 
[V:2] B3cA4 | 
[V:3] d8- | 
[V:4] z2F3GAF | 
[V:5] F,4z4 | 
[V:6] D,8 | 
[V:1] G8- | 
[V:2] G8- | 
[V:3] d8 | 
[V:4] B2GABcd2- | 
[V:5] z2B,3A,G,F, | 
[V:6] G,,8- | 
[V:1] G8 | 
[V:2] G8- | 
[V:3] z4d4 | 
[V:4] dcc4=B2 | 
[V:5] G,2_E,2D,4 | 
[V:6] G,,8 | 
[V:1] z8 | 
[V:2] G8 | 
[V:3] _e4_e4 | 
[V:4] c6G2 | 
[V:5] C,8 | 
[V:6] z4C,4 | 
[V:1] F8 | 
[V:2] z2d2d2d2- | 
[V:3] d8 | 
[V:4] B3cA4 | 
[V:5] z8 | 
[V:6] D,8 | 
[V:1] G8 | 
[V:2] d2cBc4 | 
[V:3] z8 | 
[V:4] G8 | 
[V:5] z4C,4 | 
[V:6] _E,8 | 
[V:1] A8 | 
[V:2] d8 | 
[V:3] z2d2d2d2- | 
[V:4] z4F4 | 
[V:5] F,4D,4 | 
[V:6] D,8 | 
[V:1] G8 | 
[V:2] z8 | 
[V:3] d2cBc4 | 
[V:4] G8 | 
[V:5] _E,8 | 
[V:6] z4C,4 | 
[V:1] z4F4 | 
[V:2] z2d2d2d2- | 
[V:3] d8 | 
[V:4] A8 | 
[V:5] D,8 | 
[V:6] F,4D,4 | 
[V:1] G8 | 
[V:2] d2cBc4 | 
[V:3] z8 | 
[V:4] G8 | 
[V:5] z4C,4 | 
[V:6] _E,8 | 
[V:1] A8 | 
[V:2] d8 | 
[V:3] z2d2d2d2- | 
[V:4] z4F4 | 
[V:5] F,4D,4 | 
[V:6] D,8 | 
[V:1] G8 | 
[V:2] z2g2g2g2- | 
[V:3] d2cBc4 | 
[V:4] G3ABcB2- | 
[V:5] _E,8 | 
[V:6] z8 | 
[V:1] z4A4 | 
[V:2] g2^fe^f4 | 
[V:3] d6c2 | 
[V:4] B2AGA4 | 
[V:5] D,8 | 
[V:6] z8 | 
[V:1] B6AG | 
[V:2] g6fe | 
[V:3] B2A2G4- | 
[V:4] G8 | 
[V:5] z8 | 
[V:6] z8 | 
[V:1] B2A2c3B | 
[V:2] d2f2e2d2 | 
[V:3] G2D2E2F2- | 
[V:4] z8 | 
[V:5] z8 | 
[V:6] z8 | 
[V:1] AGG4^F2 | 
[V:2] c2B2A4 | 
[V:3] F2G2D4 | 
[V:4] z8 | 
[V:5] z8 | 
[V:6] z8 | 
[V:1] G8 | 
[V:2] G8 | 
[V:3] B3cd2_e2 | 
[V:4] G8 | 
[V:5] z8 | 
[V:6] G,,4G,,2C,2- | 
[V:1] z8 | 
[V:2] z8 | 
[V:3] d4G4 | 
[V:4] G4G4- | 
[V:5] z8 | 
[V:6] C,2B,,2C,2_E,2 | 
[V:1] z8 | 
[V:2] z8 | 
[V:3] z8 | 
[V:4] G4G4 | 
[V:5] G,,4G,,2C,2- | 
[V:6] D,2G,3F,_E,D, | 
[V:1] z8 | 
[V:2] z8 | 
[V:3] z8 | 
[V:4] G8 | 
[V:5] C,2B,,2C,2_E,2 | 
[V:6] _E,2D,2E,2G,2 | 
[V:1] z8 | 
[V:2] z8 | 
[V:3] z8 | 
[V:4] A4F4- | 
[V:5] D,2F,3_E,D,2- | 
[V:6] F,2D,3_E,F,2- | 
[V:1] z8 | 
[V:2] z8 | 
[V:3] z8 | 
[V:4] F4z4 | 
[V:5] D,2C,B,,A,,4 | 
[V:6] F,2_E,D,C,4 | 
[V:1] G8 | 
[V:2] G4G2c2- | 
[V:3] z8 | 
[V:4] B3cd2_e2 | 
[V:5] z8 | 
[V:6] z8 | 
[V:1] G4G4- | 
[V:2] c2B2c2_e2 | 
[V:3] z8 | 
[V:4] d4c4 | 
[V:5] z8 | 
[V:6] z8 | 
[V:1] G4G4 | 
[V:2] d2g3f_ed | 
[V:3] G4G2c2- | 
[V:4] z8 | 
[V:5] z8 | 
[V:6] z8 | 
[V:1] G8 | 
[V:2] _e2d2_e2g2 | 
[V:3] c2B2c2_e2 | 
[V:4] z8 | 
[V:5] z8 | 
[V:6] z8 | 
[V:1] A4F4- | 
[V:2] f2d3_ef2- | 
[V:3] d2f3_ed2- | 
[V:4] z8 | 
[V:5] z8 | 
[V:6] z8 | 
[V:1] F4z4 | 
[V:2] f2_edc4 | 
[V:3] d2cBA4 | 
[V:4] z8 | 
[V:5] z8 | 
[V:6] z8 | 
[V:1] z8 | 
[V:2] z8 | 
[V:3] z8 | 
[V:4] B8 | 
[V:5] G,,8 | 
[V:6] G,8 | 
[V:1] z8 | 
[V:2] z8 | 
[V:3] z8 | 
[V:4] B4B4- | 
[V:5] G,,4D,4- | 
[V:6] G,4F,4- | 
[V:1] z8 | 
[V:2] z8 | 
[V:3] z8 | 
[V:4] B4B4 | 
[V:5] D,2C,B,,_E,2D,2- | 
[V:6] F,2E,D,G,2F,2- | 
[V:1] z8 | 
[V:2] z8 | 
[V:3] z8 | 
[V:4] A4G4 | 
[V:5] D,2C,3B,,G,,2 | 
[V:6] F,2E,3D,D,2- | 
[V:1] z8 | 
[V:2] z8 | 
[V:3] z8 | 
[V:4] ^F4G4- | 
[V:5] A,,4G,,4- | 
[V:6] D,2C,2D,4- | 
[V:1] B8 | 
[V:2] g8 | 
[V:3] G8 | 
[V:4] G4z4 | 
[V:5] G,,4z4 | 
[V:6] D,4z4 | 
[V:1] B4B4- | 
[V:2] g4f4- | 
[V:3] G4d4- | 
[V:4] z8 | 
[V:5] z8 | 
[V:6] z8 | 
[V:1] B4B4 | 
[V:2] f2edg2f2- | 
[V:3] d2cB_e2d2- | 
[V:4] z8 | 
[V:5] z8 | 
[V:6] z8 | 
[V:1] A4G4 | 
[V:2] f2e3dd2- | 
[V:3] d2c3BG2 | 
[V:4] z8 | 
[V:5] z8 | 
[V:6] z8 | 
[V:1] ^F4G4- | 
[V:2] dcA2B4 | 
[V:3] A4G4- | 
[V:4] z8 | 
[V:5] z4G,,4 | 
[V:6] D,8 | 
[V:1] G4G4 | 
[V:2] c8 | 
[V:3] G4z4 | 
[V:4] z4c4- | 
[V:5] C,6B,,2 | 
[V:6] E,8 | 
[V:1] A2c4BA | 
[V:2] z8 | 
[V:3] F8 | 
[V:4] c2c2c4 | 
[V:5] A,,8 | 
[V:6] C,8 | 
[V:1] B2G2B4 | 
[V:2] d6d2 | 
[V:3] G8 | 
[V:4] B4z2d2- | 
[V:5] G,,8 | 
[V:6] D,4G,4 | 
[V:1] A2DEFGA2- | 
[V:2] d4A4 | 
[V:3] A8- | 
[V:4] d2d2d4 | 
[V:5] D,4D,4 | 
[V:6] F,6D,2 | 
[V:1] AGG4^F2 | 
[V:2] z2d4d2 | 
[V:3] A8 | 
[V:4] A4z2d2- | 
[V:5] D,8 | 
[V:6] D,4z2D,2- | 
[V:1] G8- | 
[V:2] d4B4- | 
[V:3] G8- | 
[V:4] d2d2d4 | 
[V:5] G,,8 | 
[V:6] D,2D,2D,4 | 
[V:1] G8- | 
[V:2] B2AGB3c | 
[V:3] G8- | 
[V:4] B8- | 
[V:5] G,8- | 
[V:6] G,,8- | 
[V:1] G8 ||  
[V:2] d8 ||  
[V:3] G8 ||  
[V:4] B8 ||  
[V:5] G,8 ||  
[V:6] G,,8 ||  
[V:1]  [K:F] [K:clef=treble][M:2/1]B8 | 
[V:2]  [K:F] [K:clef=treble-8][M:2/1]z8 | 
[V:3]  [K:F] [K:clef=treble-8][M:2/1]z2B3cd2 | 
[V:4]  [K:F] [K:clef=treble-8][M:2/1]B3cd2G2 | 
[V:5]  [K:F] [K:clef=bass][M:2/1]z8 | 
[V:6]  [K:F] [K:clef=bass][M:2/1]z8 | 
[V:1] B4B4- | 
[V:2] z8 | 
[V:3] G2B3cd2 | 
[V:4] B3cd2G2 | 
[V:5] z8 | 
[V:6] z8 | 
[V:1] B4c4 | 
[V:2] z8 | 
[V:3] G2g3^f^fe | 
[V:4] B2G2A4 | 
[V:5] z8 | 
[V:6] z8 | 
[V:1] B6AG | 
[V:2] z8 | 
[V:3] g2GABcd2- | 
[V:4] G6FE | 
[V:5] z8 | 
[V:6] z8 | 
[V:1] A4D3E | 
[V:2] f8 | 
[V:3] dcA2B4 | 
[V:4] D8- | 
[V:5] z8 | 
[V:6] z8 | 
[V:1] FGA3GAB | 
[V:2] f4f4- | 
[V:3] A2D2F3G | 
[V:4] D8 | 
[V:5] z8 | 
[V:6] z8 | 
[V:1] c2d4cB | 
[V:2] f4g4 | 
[V:3] A2B4AG | 
[V:4] z8 | 
[V:5] z8 | 
[V:6] z8 | 
[V:1] d2c2A2d2 | 
[V:2] f6d2 | 
[V:3] B2A3FB2 | 
[V:4] z8 | 
[V:5] z8 | 
[V:6] z8 | 
[V:1] c2B4AG | 
[V:2] e4d4- | 
[V:3] A2G2B3c | 
[V:4] z8 | 
[V:5] z8 | 
[V:6] z8 | 
[V:1] F4z4 | 
[V:2] d4z4 | 
[V:3] d8- | 
[V:4] B8 | 
[V:5] B,,3C,D,2G,,2 | 
[V:6] z2B,,3C,D,2 | 
[V:1] z8 | 
[V:2] z8 | 
[V:3] d8 | 
[V:4] B4B4- | 
[V:5] B,,3C,D,2G,,2 | 
[V:6] G,,2B,,3C,D,2 | 
[V:1] z8 | 
[V:2] z8 | 
[V:3] z8 | 
[V:4] B4c4 | 
[V:5] B,,2G,,2A,,4 | 
[V:6] G,,2G,3^F,F,E, | 
[V:1] z8 | 
[V:2] z8 | 
[V:3] z4z2d2- | 
[V:4] B6G2 | 
[V:5] G,,4G,4 | 
[V:6] G,6F,E, | 
[V:1] z8 | 
[V:2] z8 | 
[V:3] dcA2B4 | 
[V:4] A4G4 | 
[V:5] z2F,2G,D,G,2 | 
[V:6] D,4G,,4 | 
[V:1] A8 | 
[V:2] z2d3cA2 | 
[V:3] A4D4 | 
[V:4] z8 | 
[V:5] F,8 | 
[V:6] z2D,3E,F,2 | 
[V:1] G4A4- | 
[V:2] B4A2F2- | 
[V:3] d3ef4 | 
[V:4] z8 | 
[V:5] z4z2D,2- | 
[V:6] G,2G,,2D,4 | 
[V:1] A4B4 | 
[V:2] F2D2G4 | 
[V:3] z2f2d3e | 
[V:4] z8 | 
[V:5] D,E,F,2G,2G,,2 | 
[V:6] z8 | 
[V:1] A6F2 | 
[V:2] F6D2 | 
[V:3] f8 | 
[V:4] A8 | 
[V:5] D,8 | 
[V:6] z2D,3C,D,2 | 
[V:1] G4F4 | 
[V:2] B4A2F2- | 
[V:3] z8 | 
[V:4] G4A4- | 
[V:5] z4z2D,2- | 
[V:6] G,,4D,4 | 
[V:1] z8 | 
[V:2] F2D2G4 | 
[V:3] z2f2d3e | 
[V:4] A4B4 | 
[V:5] D,E,F,2G,2G,,2 | 
[V:6] z8 | 
[V:1] z4A4 | 
[V:2] F4D4 | 
[V:3] fdf3edc | 
[V:4] A6F2 | 
[V:5] D,8 | 
[V:6] z2D,3C,D,2 | 
[V:1] B2G2A4 | 
[V:2] z2d2f4 | 
[V:3] BGB2A4 | 
[V:4] G4F4 | 
[V:5] z4z2D,2 | 
[V:6] G,,4D,4 | 
[V:1] G8 | 
[V:2] e4d4 | 
[V:3] z4z2d2 | 
[V:4] z2G2B4 | 
[V:5] E,3F,G,4 | 
[V:6] z4z2G,2- | 
[V:1] z2A2B2G2 | 
[V:2] z4d4 | 
[V:3] fedcBGB2 | 
[V:4] A4G4 | 
[V:5] D,4G,4 | 
[V:6] G,2^F,2G,4 | 
[V:1] A4D4 | 
[V:2] f6ed | 
[V:3] A2D2F3G | 
[V:4] z8 | 
[V:5] F,4z2F,2- | 
[V:6] D,8- | 
[V:1] z8 | 
[V:2] f3ge4 | 
[V:3] A3Bc4 | 
[V:4] z4G4 | 
[V:5] F,2D,2E,4 | 
[V:6] D,4C,4 | 
[V:1] z2d3cB2- | 
[V:2] d8- | 
[V:3] d4B4 | 
[V:4] B6AG | 
[V:5] F,4G,4 | 
[V:6] B,,4G,,4 | 
[V:1] B2AG^FGAF | 
[V:2] d8 | 
[V:3] z2d3cA2 | 
[V:4] B3cA4 | 
[V:5] D,8 | 
[V:6] D,8 | 
[V:1] G2d2B2d2- | 
[V:2] z8 | 
[V:3] B2G2B3c | 
[V:4] G8- | 
[V:5] z2B,2G,2B,2- | 
[V:6] G,,8 | 
[V:1] dcB4AG | 
[V:2] z2d2B2d2- | 
[V:3] d4G4 | 
[V:4] G8 | 
[V:5] B,A,G,4F,E, | 
[V:6] z8 | 
[V:1] F2G2D4 | 
[V:2] dcB4AG | 
[V:3] d8 | 
[V:4] z8 | 
[V:5] D,3E,F,2G,2 | 
[V:6] B,,6B,,2 | 
[V:1] z8 | 
[V:2] F2G3EA2- | 
[V:3] z8 | 
[V:4] z8 | 
[V:5] D,4z4 | 
[V:6] B,,4C,4 | 
[V:1] z8 | 
[V:2] AGG3^F^FE | 
[V:3] z8 | 
[V:4] z8 | 
[V:5] z8 | 
[V:6] B,,2G,,2A,,4 | 
[V:1] z2d2B2d2- | 
[V:2] G8- | 
[V:3] z8 | 
[V:4] z8 | 
[V:5] z2B,2G,2B,2- | 
[V:6] G,,8- | 
[V:1] dcB4AG | 
[V:2] G8 | 
[V:3] z8 | 
[V:4] B6B2 | 
[V:5] B,A,G,4F,E, | 
[V:6] G,,8 | 
[V:1] F2G3EA2- | 
[V:2] z8 | 
[V:3] z8 | 
[V:4] B4c4 | 
[V:5] D,2E,3C,F,2 | 
[V:6] z8 | 
[V:1] AGG3^FFE | 
[V:2] z8 | 
[V:3] z8 | 
[V:4] B2G2A4 | 
[V:5] G,2E,2D,4 | 
[V:6] z8 | 
[V:1] G8- | 
[V:2] z8 | 
[V:3] z2d2B2d2- | 
[V:4] G8- | 
[V:5] G,,8- | 
[V:6] z2B,2G,2B,2- | 
[V:1] G8 | 
[V:2] z4d4 | 
[V:3] dcB4AG | 
[V:4] G8 | 
[V:5] G,,8 | 
[V:6] B,A,G,4F,E, | 
[V:1] z8 | 
[V:2] f3df2e2 | 
[V:3] F4z4 | 
[V:4] A6G2 | 
[V:5] D,6E,2 | 
[V:6] D,4z4 | 
[V:1] z8 | 
[V:2] c2d4e2- | 
[V:3] z8 | 
[V:4] A4B4 | 
[V:5] F,4G,4 | 
[V:6] z8 | 
[V:1] z8 | 
[V:2] edd4^c2 | 
[V:3] z4z2e2 | 
[V:4] A2F2G4 | 
[V:5] D,3F,E,4 | 
[V:6] z8 | 
[V:1] A6G2 | 
[V:2] d4z4 | 
[V:3] f3df2e2 | 
[V:4] F4z4 | 
[V:5] D,4z4 | 
[V:6] D,6E,2 | 
[V:1] A4B4 | 
[V:2] z8 | 
[V:3] c2d4e2- | 
[V:4] z8 | 
[V:5] z8 | 
[V:6] F,4G,4 | 
[V:1] A2F2G4 | 
[V:2] z4G4 | 
[V:3] edd4^c2 | 
[V:4] z8 | 
[V:5] z8 | 
[V:6] D,3F,E,4 | 
[V:1] F8 | 
[V:2] A4A4 | 
[V:3] d8 | 
[V:4] z4A4 | 
[V:5] z4D,4 | 
[V:6] D,8 | 
[V:1] z8 | 
[V:2] G6FE | 
[V:3] z2d2d3e | 
[V:4] B4G4 | 
[V:5] G,,2B,3A,G,2- | 
[V:6] z8 | 
[V:1] z4A4 | 
[V:2] D8 | 
[V:3] fdf3edc | 
[V:4] A8 | 
[V:5] G,2^F,E,F,4 | 
[V:6] z4D,4 | 
[V:1] B4G4 | 
[V:2] z2d2d3e | 
[V:3] B2G2B3c | 
[V:4] G6FE | 
[V:5] G,8 | 
[V:6] G,,2B,3A,G,2- | 
[V:1] A8 | 
[V:2] fdf3edc | 
[V:3] d8 | 
[V:4] D4A4 | 
[V:5] z4D,4 | 
[V:6] G,2^F,E,F,4 | 
[V:1] G8 | 
[V:2] B2G2B3c | 
[V:3] z2d2d3e | 
[V:4] B4G4 | 
[V:5] G,,2B,3A,G,2- | 
[V:6] G,6F,E, | 
[V:1] z8 | 
[V:2] d8 | 
[V:3] fdf3edc | 
[V:4] A8 | 
[V:5] G,2^F,E,F,4 | 
[V:6] D,3C,D,4 | 
[V:1] [M:3/1]d8B4 | 
[V:2] [M:3/1]z4g8 | 
[V:3] [M:3/1]B8G4 | 
[V:4] [M:3/1]G12 | 
[V:5] [M:3/1]G,12 | 
[V:6] [M:3/1]G,,12 | 
[V:1] c8d4 | 
[V:2] e4f4d4 | 
[V:3] c4A4B4 | 
[V:4] z12 | 
[V:5] z12 | 
[V:6] z12 | 
[V:1] c8B4 | 
[V:2] e4f4g4 | 
[V:3] A8G4 | 
[V:4] z12 | 
[V:5] z12 | 
[V:6] z12 | 
[V:1] A4B6G2 | 
[V:2] d8z4 | 
[V:3] d12 | 
[V:4] d8B4 | 
[V:5] z4G,8 | 
[V:6] z4z4G,,4 | 
[V:1] G4A4F4 | 
[V:2] z12 | 
[V:3] z12 | 
[V:4] c8d4 | 
[V:5] E,4F,4D,4 | 
[V:6] C,4A,,4B,,4 | 
[V:1] c8z4 | 
[V:2] z12 | 
[V:3] z12 | 
[V:4] c8B4 | 
[V:5] E,4F,4G,4 | 
[V:6] A,,8G,,4 | 
[V:1] z12 | 
[V:2] a8f4 | 
[V:3] z4d8 | 
[V:4] A12 | 
[V:5] D,4z4D,4 | 
[V:6] D,8z4 | 
[V:1] z12 | 
[V:2] g8a4 | 
[V:3] B4c4A4 | 
[V:4] z12 | 
[V:5] G,4E,4F,4 | 
[V:6] z12 | 
[V:1] z12 | 
[V:2] g8f4 | 
[V:3] B4c4d4 | 
[V:4] z12 | 
[V:5] _E,8D,4 | 
[V:6] z12 | 
[V:1] c8c4 | 
[V:2] e8z4 | 
[V:3] A8z4 | 
[V:4] c8A4 | 
[V:5] A,6E,2F,4 | 
[V:6] A,,8A,,4 | 
[V:1] B6G2A4 | 
[V:2] z12 | 
[V:3] z12 | 
[V:4] B8c4 | 
[V:5] G,8z4 | 
[V:6] G,,4G,4F,4 | 
[V:1] G6E2^F4 | 
[V:2] z12 | 
[V:3] z12 | 
[V:4] B4c4A4 | 
[V:5] z12 | 
[V:6] G,4C,4D,4 | 
[V:1] G8z4 | 
[V:2] g8e4 | 
[V:3] B8c4 | 
[V:4] G12 | 
[V:5] G,8G,4 | 
[V:6] G,,8C,4 | 
[V:1] z12 | 
[V:2] f8g4 | 
[V:3] A4d4c4 | 
[V:4] z12 | 
[V:5] F,4B,4G,4 | 
[V:6] D,4B,,4_E,4 | 
[V:1] z12 | 
[V:2] f4g4e4 | 
[V:3] d4B4c4 | 
[V:4] z12 | 
[V:5] A,4G,4A,4 | 
[V:6] D,4_E,4C,4 | 
[V:1] A8D4 | 
[V:2] d8z4 | 
[V:3] A8z4 | 
[V:4] F8B4 | 
[V:5] F,4D,8 | 
[V:6] D,8B,,4 | 
[V:1] E4F8 | 
[V:2] c8f4 | 
[V:3] z4z4A4 | 
[V:4] G4A8 | 
[V:5] z4z4D,4 | 
[V:6] C,4A,,4D,4 | 
[V:1] G8z4 | 
[V:2] d4e8 | 
[V:3] B4G4c4 | 
[V:4] G8z4 | 
[V:5] B,,4C,8 | 
[V:6] G,,4G,4E,4 | 
[V:1] A8D4 | 
[V:2] d8z4 | 
[V:3] A8z4 | 
[V:4] F8B4 | 
[V:5] D,12 | 
[V:6] F,4D,4B,,4 | 
[V:1] E4F8 | 
[V:2] c8f4 | 
[V:3] z4z4A4 | 
[V:4] G4A8 | 
[V:5] z4z4D,4 | 
[V:6] C,4A,,4D,4 | 
[V:1] G8z4 | 
[V:2] d4e8 | 
[V:3] B4c8 | 
[V:4] G12- | 
[V:5] G,4E,6F,2 | 
[V:6] G,,4C,6B,,2 | 
[V:1] d8B4 | 
[V:2] d8G4 | 
[V:3] B4G4g4 | 
[V:4] G12 | 
[V:5] G,12 | 
[V:6] G,,12 | 
[V:1] c8d4 | 
[V:2] c4A4B4 | 
[V:3] e4f4d4 | 
[V:4] z12 | 
[V:5] z12 | 
[V:6] z12 | 
[V:1] c8B4 | 
[V:2] A8G4 | 
[V:3] e4f4g4 | 
[V:4] z12 | 
[V:5] z12 | 
[V:6] z12 | 
[V:1] A4B6G2 | 
[V:2] d12 | 
[V:3] d8z4 | 
[V:4] d8B4 | 
[V:5] z4G,8 | 
[V:6] z4z4G,,4 | 
[V:1] G4A4F4 | 
[V:2] z12 | 
[V:3] z12 | 
[V:4] c8d4 | 
[V:5] E,4F,4D,4 | 
[V:6] C,4A,,4B,,4 | 
[V:1] c8z4 | 
[V:2] z12 | 
[V:3] z12 | 
[V:4] c8B4 | 
[V:5] E,4F,4G,4 | 
[V:6] A,,8G,,4 | 
[V:1] z12 | 
[V:2] z4d8 | 
[V:3] a8f4 | 
[V:4] A8z4 | 
[V:5] D,4z4D,4 | 
[V:6] D,8z4 | 
[V:1] z12 | 
[V:2] B4c4A4 | 
[V:3] g8a4 | 
[V:4] z12 | 
[V:5] G,4E,4F,4 | 
[V:6] z12 | 
[V:1] z12 | 
[V:2] B4c4d4 | 
[V:3] g8f4 | 
[V:4] z12 | 
[V:5] _E,8D,4 | 
[V:6] z12 | 
[V:1] c8c4 | 
[V:2] A8z4 | 
[V:3] e8z4 | 
[V:4] c8A4 | 
[V:5] A,6E,2^F,4 | 
[V:6] A,,8A,,4 | 
[V:1] B6G2A4 | 
[V:2] z12 | 
[V:3] z12 | 
[V:4] B8c4 | 
[V:5] G,8z4 | 
[V:6] G,,4G,4F,4 | 
[V:1] G6E2^F4 | 
[V:2] z12 | 
[V:3] z12 | 
[V:4] B4c4A4 | 
[V:5] z12 | 
[V:6] G,4C,4D,4 | 
[V:1] G12 | 
[V:2] B8c4 | 
[V:3] g8e4 | 
[V:4] G12 | 
[V:5] G,8G,4 | 
[V:6] G,,8C,4 | 
[V:1] z12 | 
[V:2] A4d4c4 | 
[V:3] f8g4 | 
[V:4] z12 | 
[V:5] F,4B,4G,4 | 
[V:6] D,4B,,4_E,4 | 
[V:1] z12 | 
[V:2] d4B4c4 | 
[V:3] f4g4e4 | 
[V:4] z12 | 
[V:5] A,4G,4A,4 | 
[V:6] D,4_E,4C,4 | 
[V:1] [M:2/1]z4d4- | 
[V:2] [M:2/1]A8 | 
[V:3] [M:2/1]d8- | 
[V:4] [M:2/1]z8 | 
[V:5] [M:2/1]F,6D,2 | 
[V:6] [M:2/1]D,8 | 
[V:1] d4d4 | 
[V:2] f8- | 
[V:3] d8 | 
[V:4] F8 | 
[V:5] D,8 | 
[V:6] z4B,,4- | 
[V:1] d8 | 
[V:2] f4f4 | 
[V:3] z8 | 
[V:4] B8 | 
[V:5] z4F,4- | 
[V:6] B,,2B,,2B,,4 | 
[V:1] c8 | 
[V:2] f8 | 
[V:3] c8 | 
[V:4] A8- | 
[V:5] F,4F,4 | 
[V:6] F,,8- | 
[V:1] z4c4- | 
[V:2] c4c4- | 
[V:3] f8 | 
[V:4] A8 | 
[V:5] F,8 | 
[V:6] F,,8 | 
[V:1] c2c2c4 | 
[V:2] c4c4 | 
[V:3] e8- | 
[V:4] G8- | 
[V:5] C,8 | 
[V:6] z4C,4- | 
[V:1] G8 | 
[V:2] c8 | 
[V:3] e8 | 
[V:4] G8- | 
[V:5] z4G,4- | 
[V:6] C,2C,2C,4 | 
[V:1] d4d4 | 
[V:2] B8- | 
[V:3] d8- | 
[V:4] G8- | 
[V:5] G,2G,2G,4 | 
[V:6] G,,8- | 
[V:1] d6B2 | 
[V:2] B8- | 
[V:3] d8- | 
[V:4] G8- | 
[V:5] D,8- | 
[V:6] G,,8- | 
[V:1] B8 |]  
[V:2] B8 |]  
[V:3] d8 |]  
[V:4] G8 |]  
[V:5] D,8 |]  
[V:6] G,,8 |]  



